X:1
T:Cantata 147
T:Jesus, Alegria dos Homens
T:J.S.Bach
%%score ( 1 2 )
L:1/8
M:3/4
K:A
V:1 treble-8 nm="Guitar" snm="Guit."
V:2 treble-8 
V:1
 (3z AB |: (3ced (3dfe (3eag | (3aec (3ABc (3def | (3edc (3BcA (3GAB | (3EGB (3dcB (3cAB | %5
 (3ced (3dfe (3eag | (3aec (3ABc (3Fed | (3cBA (3EAG (3Ace | (3aec (3Ace (3=gec | %9
 (3Ace (3fdB (3GBd | (3ecA (3FAc (3dBG | (3EGB (3dcB [Ac]2 || (3cAB (3ced (3dfe | %13
 (3eag (3aec (3ABc | (3Fed (3cBA (3EAG | (3Ace (3aec (3Ace | (3=gec (3Ace (3fdB | %17
 (3GBd (3ecA (3FAc | (3dBG (3EGB (3dcB | (3cAB (3ced (3dfe | (3eag (3aec (3ABc | %21
 (3Fed (3cBA (3EAG | A6 |] %23
V:2
 x2 |: A,2 E,2 C2 | A,2 F,2 E,2 | E,2 A,2 E,2 | E,2 D2 A,2 | A,2 E,2 A,2 | A,2 A,2 F2 | %7
 A,2 E,2 A,2 | A,2 A,2 A,2 | A,2 D2 E,2 | A,2 F2 E,2 | E,2 D2 A,2 || A,2 F,2 E,2 | C2 A,2 A,2 | %14
 F2 A,2 A,2 | A,2 A,2 A,2 | A,2 A,2 D2 | E,2 A,2 F2 | E,2 E,2 D2 | A,2 A,2 E,2 | A,2 A,2 A,2 | %21
 F2 A,2 E,2 | A,6 |] %23

